assets/brand/suse/rancher-logo.svg

<?xml version="1.0" encoding="UTF-8"?>
<svg version="1.1" viewBox="0 0 359.59 69.717" xmlns="http://www.w3.org/2000/svg" xmlns:cc="http://creativecommons.org/ns#" xmlns:dc="http://purl.org/dc/elements/1.1/" xmlns:rdf="http://www.w3.org/1999/02/22-rdf-syntax-ns#">
<metadata>
<rdf:RDF>
<cc:Work rdf:about="">
<dc:format>image/svg+xml</dc:format>
<dc:type rdf:resource="http://purl.org/dc/dcmitype/StillImage"/>
</cc:Work>
</rdf:RDF>
</metadata>
<g transform="translate(-29.998 -29.614)">
<path d="m323.2 69.111h-0.043c-1.331 0-2.412 1.079-2.412 2.412v10.218h-14.705v-10.218c0-1.331-1.077-2.412-2.41-2.412-1.332 0-2.412 1.079-2.412 2.412v24.944c0 1.33 1.078 2.412 2.412 2.412 1.331 0 2.41-1.08 2.41-2.412v-10.577h14.705v10.577c0 1.33 1.076 2.412 2.412 2.412h0.043c1.332 0 2.414-1.08 2.414-2.412v-24.944c0-1.331-1.082-2.412-2.414-2.412m-30.966 24.484c0.779-1.288 0.117-2.971-1.312-3.449-1.101-0.368-2.297 0.118-2.85 1.138-0.536 0.985-1.221 1.786-2.062 2.403-1.305 0.964-2.925 1.443-4.849 1.443-2.828 0-5.036-0.978-6.63-2.931-1.592-1.954-2.389-4.692-2.389-8.21 0-3.491 0.834-6.218 2.503-8.188 1.671-1.967 3.904-2.953 6.699-2.953 1.836 0 3.323 0.412 4.467 1.241 0.683 0.494 1.27 1.162 1.762 1.999 0.611 1.041 1.936 1.419 3.04 0.927l0.086-0.036c1.349-0.605 1.837-2.287 1.008-3.511-0.825-1.212-1.866-2.202-3.124-2.965-2.03-1.233-4.533-1.85-7.509-1.85-2.83 0-5.299 0.617-7.401 1.85-2.105 1.236-3.728 3.008-4.872 5.324-1.141 2.316-1.713 5.037-1.713 8.165s0.572 5.849 1.713 8.163c1.144 2.318 2.767 4.093 4.872 5.325 2.107 1.236 4.586 1.851 7.444 1.851 2.947 0 5.511-0.72 7.692-2.163 1.407-0.934 2.547-2.122 3.425-3.573m-38.026 5.286c1.998 0 3.619-1.619 3.619-3.622v-23.924c0-1.228-0.995-2.224-2.225-2.224-1.235 0-2.232 1.005-2.223 2.24l0.111 20.382c0 0.455-0.6 0.623-0.833 0.231l-12.498-21.078c-0.65-1.101-1.836-1.775-3.112-1.775-2.004 0-3.625 1.623-3.625 3.623v23.937c0 1.223 0.991 2.21 2.212 2.21 1.22 0 2.21-0.987 2.21-2.21l-0.165-20.406c-6e-3 -0.458 0.597-0.623 0.831-0.233l12.539 21.074c0.651 1.101 1.836 1.775 3.113 1.775h0.046m-36.771-11.727-4.48-12.645c-0.141-0.4-0.705-0.397-0.842 2e-3l-4.371 12.643zm1.446 3.925h-12.54l-2.314 6.348c-0.317 0.874-1.15 1.454-2.077 1.454h-0.22c-1.545 0-2.615-1.544-2.069-2.99l9.082-24.08c0.612-1.624 2.169-2.7 3.907-2.7 1.737 0 3.292 1.076 3.905 2.7l9.082 24.08c0.546 1.446-0.523 2.99-2.069 2.99h-0.345c-0.932 0-1.765-0.586-2.081-1.465zm152.93-8.119h6.945c1.956 0 3.413-0.4 4.376-1.197s1.444-2.022 1.444-3.676c0-1.653-0.481-2.88-1.444-3.675-0.963-0.799-2.42-1.195-4.376-1.195h-5.048c-1.048 0-1.897 0.85-1.897 1.897zm6.403 4.014h-6.403v9.586c0 1.283-1.04 2.321-2.323 2.321h-0.139c-1.282 0-2.321-1.038-2.321-2.321v-21.197c0-3.452 2.8-6.252 6.253-6.252h5.882c3.219 0 5.759 0.789 7.623 2.367 1.865 1.578 2.796 3.765 2.796 6.561 0 2.137-0.55 3.918-1.643 5.346-1.098 1.43-2.654 2.443-4.669 3.044l5.745 8.864c1.005 1.544-0.105 3.586-1.946 3.586-0.795 0-1.536-0.405-1.962-1.076zm-203.1-4.014h6.946c1.953 0 3.412-0.4 4.375-1.197s1.443-2.022 1.443-3.676c0-1.653-0.48-2.88-1.443-3.675-0.963-0.799-2.422-1.195-4.375-1.195h-5.049c-1.047 0-1.897 0.85-1.897 1.897zm6.404 4.014h-6.404v9.586c0 1.283-1.04 2.321-2.323 2.321h-0.137c-1.284 0-2.323-1.038-2.323-2.321v-21.197c0-3.452 2.799-6.252 6.254-6.252h5.881c3.218 0 5.759 0.789 7.624 2.367 1.864 1.578 2.796 3.765 2.796 6.561 0 2.137-0.551 3.918-1.644 5.346-1.098 1.43-2.655 2.443-4.671 3.044l5.748 8.864c1.002 1.544-0.106 3.586-1.947 3.586-0.795 0-1.535-0.405-1.961-1.076zm174.58 7.75h-13.556c-1.045 0-1.894-0.852-1.894-1.897v-6.848h13.08c1.125 0 2.036-0.912 2.036-2.034 0-1.127-0.911-2.04-2.036-2.04h-13.08v-6.738c0-1.048 0.849-1.898 1.894-1.898h13.556c1.179 0 2.137-0.955 2.137-2.134s-0.958-2.136-2.137-2.136h-13.556c-3.4 0-6.169 2.766-6.169 6.17v17.661c0 3.401 2.769 6.17 6.169 6.17h13.556c1.179 0 2.137-0.956 2.137-2.137 0-1.184-0.958-2.139-2.137-2.139m-66.644-38.999h-13.556c-1.044 0-1.896-0.849-1.896-1.895v-6.848h13.083c1.124 0 2.037-0.912 2.037-2.037s-0.913-2.036-2.037-2.036h-13.083v-6.739c0-1.047 0.852-1.897 1.896-1.897h13.556c1.18 0 2.138-0.957 2.138-2.137s-0.958-2.136-2.138-2.136h-13.556c-3.4 0-6.168 2.766-6.168 6.17v17.66c0 3.4 2.768 6.169 6.168 6.169h13.556c1.18 0 2.138-0.957 2.138-2.137s-0.958-2.137-2.138-2.137m-39.861-12.761c-2.865-0.514-4.858-1.124-5.974-1.832-1.116-0.709-1.675-1.667-1.675-2.874 0-1.297 0.573-2.36 1.72-3.19s2.76-1.245 4.844-1.245c2.11 0 3.801 0.407 5.069 1.223 0.681 0.438 1.303 1.021 1.863 1.75 0.826 1.07 2.384 1.211 3.389 0.307 0.946-0.854 1.029-2.318 0.178-3.268-1.028-1.148-2.198-2.057-3.509-2.727-1.945-0.996-4.291-1.494-7.035-1.494-2.355 0-4.414 0.408-6.177 1.222-1.765 0.815-3.118 1.916-4.051 3.304-0.937 1.387-1.404 2.926-1.404 4.616 0 1.599 0.368 2.957 1.11 4.073 0.737 1.116 1.923 2.052 3.551 2.805 1.629 0.755 3.816 1.389 6.563 1.901 2.746 0.514 4.667 1.101 5.769 1.764 1.102 0.665 1.654 1.539 1.654 2.625 0 1.359-0.612 2.407-1.836 3.145-1.219 0.741-2.902 1.109-5.043 1.109-2.264 0-4.157-0.421-5.681-1.266-0.87-0.483-1.649-1.124-2.34-1.92-0.868-1.009-2.425-1.031-3.364-0.091l-9e-3 8e-3c-0.86 0.86-0.926 2.251-0.114 3.156 2.582 2.882 6.433 4.322 11.552 4.322 2.353 0 4.427-0.354 6.223-1.063 1.795-0.708 3.189-1.727 4.185-3.055 0.997-1.328 1.494-2.867 1.494-4.616 0-1.629-0.362-2.993-1.086-4.095-0.725-1.101-1.877-2.021-3.462-2.761-1.583-0.739-3.719-1.35-6.404-1.833m-66.831 0.01c-2.865-0.516-4.858-1.124-5.974-1.833-1.116-0.711-1.674-1.667-1.674-2.875 0-1.296 0.574-2.36 1.719-3.191 1.147-0.828 2.762-1.243 4.844-1.243 2.11 0 3.8 0.406 5.068 1.221 0.683 0.439 1.304 1.022 1.864 1.753 0.825 1.069 2.384 1.209 3.39 0.306 0.946-0.855 1.028-2.318 0.177-3.269-1.028-1.147-2.199-2.057-3.508-2.727-1.946-0.996-4.293-1.493-7.037-1.493-2.353 0-4.412 0.407-6.176 1.222-1.766 0.814-3.117 1.916-4.052 3.303-0.935 1.388-1.402 2.927-1.402 4.617 0 1.598 0.368 2.957 1.108 4.072 0.74 1.117 1.925 2.052 3.553 2.806 1.629 0.754 3.816 1.388 6.562 1.901 2.745 0.513 4.668 1.101 5.77 1.765 1.1 0.663 1.652 1.538 1.652 2.624 0 1.358-0.612 2.407-1.833 3.145-1.222 0.74-2.904 1.109-5.045 1.109-2.264 0-4.157-0.421-5.681-1.267-0.87-0.482-1.649-1.124-2.338-1.921-0.868-1.007-2.427-1.03-3.367-0.09l-8e-3 9e-3c-0.86 0.859-0.925 2.251-0.114 3.156 2.582 2.882 6.433 4.322 11.553 4.322 2.352 0 4.426-0.355 6.221-1.064 1.796-0.708 3.19-1.727 4.187-3.054 0.996-1.327 1.493-2.867 1.493-4.616 0-1.629-0.362-2.993-1.087-4.095-0.724-1.102-1.876-2.022-3.462-2.761-1.583-0.74-3.718-1.351-6.403-1.832m44.573-10.916v16.429c0 3.921-1.042 6.885-3.121 8.891-2.084 2.007-5.115 3.009-9.097 3.009-3.984 0-7.016-1.002-9.097-3.009-2.081-2.006-3.122-4.97-3.122-8.891v-16.429c0-1.349 1.094-2.444 2.443-2.444 1.348 0 2.445 1.095 2.445 2.444v15.839c0 2.837 0.594 4.925 1.787 6.269 1.192 1.341 3.039 2.012 5.544 2.012s4.351-0.671 5.543-2.012c1.191-1.344 1.787-3.432 1.787-6.269v-15.839c0-1.349 1.095-2.444 2.445-2.444 1.348 0 2.443 1.095 2.443 2.444" fill="#0c322c"/>
<path d="m134 46.482h-26.186c-0.161 0-0.324 0-0.431 0.055v-1.236c0-2.583-0.645-4.732-1.45-4.732s-1.774 2.099-2.204 4.676l-1.345 8.012c-0.43 2.583 1.345 4.681 3.98 4.681h7.851c0.806 0 1.56-0.109 2.257-0.324-0.269 1.345-1.397 2.367-2.847 2.367h-11.023c-1.776 0-3.121-1.615-2.851-3.385l1.127-6.723c0.269-1.774-1.075-3.388-2.847-3.388h-54.959c-1.182 0-2.15 0.701-2.634 1.719l-10.324 15.759c-0.161 0.269-0.161 0.591 0.055 0.858l1.989 2.366c0.27 0.324 0.699 0.324 1.02 0.107l7.047-5.537v33.66c0 1.615 1.289 2.906 2.901 2.906h15.594c1.614 0 2.903-1.291 2.903-2.906v-11.724c0-1.615 1.291-2.902 2.905-2.902h38.933c1.613 0 2.905 1.287 2.905 2.902v11.724c0 1.615 1.288 2.906 2.9 2.906h15.595c1.614 0 2.903-1.291 2.903-2.906v-12.584h-8.281c-2.581 0-4.73-2.152-4.73-4.731v-8.123c0-1.555 0.753-2.901 1.882-3.763v9.677c0 2.582 2.151 4.733 4.73 4.733h12.745c2.582 0 4.73-2.151 4.73-4.733v-24.625c-0.107-2.688-2.202-4.786-4.84-4.786m18.877 6.775c0.428 2.529-1.342 4.623-3.927 4.623h-8.333v-5.752h2.527c2.582 0 4.731-2.15 4.731-4.733v-2.094c0-2.581 0.644-4.733 1.451-4.733 0.75 0 1.776 2.1 2.206 4.677l1.345 8.012" fill="#30ba78"/>
</g>
</svg>

<?xml version="1.0" encoding="UTF-8"?>
<!DOCTYPE svg PUBLIC "-//W3C//DTD SVG 1.1//EN" "http://www.w3.org/Graphics/SVG/1.1/DTD/svg11.dtd">
<svg version="1.1" xmlns="http://www.w3.org/2000/svg" xmlns:xlink="http://www.w3.org/1999/xlink" x="0" y="0" width="420" height="129" viewBox="0, 0, 420, 129">
  <g id="Layer_1">
    <g>
      <path d="M323.198,69.111 L323.155,69.111 C321.824,69.111 320.743,70.19 320.743,71.523 L320.743,81.741 L306.038,81.741 L306.038,71.523 C306.038,70.192 304.961,69.111 303.628,69.111 C302.296,69.111 301.216,70.19 301.216,71.523 L301.216,96.467 C301.216,97.797 302.294,98.879 303.628,98.879 C304.959,98.879 306.038,97.799 306.038,96.467 L306.038,85.89 L320.743,85.89 L320.743,96.467 C320.743,97.797 321.819,98.879 323.155,98.879 L323.198,98.879 C324.53,98.879 325.612,97.799 325.612,96.467 L325.612,71.523 C325.612,70.192 324.53,69.111 323.198,69.111 M292.232,93.595 C293.011,92.307 292.349,90.624 290.92,90.146 C289.819,89.778 288.623,90.264 288.07,91.284 C287.534,92.269 286.849,93.07 286.008,93.687 C284.703,94.651 283.083,95.13 281.159,95.13 C278.331,95.13 276.123,94.152 274.529,92.199 C272.937,90.245 272.14,87.507 272.14,83.989 C272.14,80.498 272.974,77.771 274.643,75.801 C276.314,73.834 278.547,72.848 281.342,72.848 C283.178,72.848 284.665,73.26 285.809,74.089 C286.492,74.583 287.079,75.251 287.571,76.088 C288.182,77.129 289.507,77.507 290.611,77.015 L290.697,76.979 C292.046,76.374 292.534,74.692 291.705,73.468 C290.88,72.256 289.839,71.266 288.581,70.503 C286.551,69.27 284.048,68.653 281.072,68.653 C278.242,68.653 275.773,69.27 273.671,70.503 C271.566,71.739 269.943,73.511 268.799,75.827 C267.658,78.143 267.086,80.864 267.086,83.992 C267.086,87.12 267.658,89.841 268.799,92.155 C269.943,94.473 271.566,96.248 273.671,97.48 C275.778,98.716 278.257,99.331 281.115,99.331 C284.062,99.331 286.626,98.611 288.807,97.168 C290.214,96.234 291.354,95.046 292.232,93.595 M254.206,98.881 C256.204,98.881 257.825,97.262 257.825,95.259 L257.825,71.335 C257.825,70.107 256.83,69.111 255.6,69.111 C254.365,69.111 253.368,70.116 253.377,71.351 L253.488,91.733 C253.488,92.188 252.888,92.356 252.655,91.964 L240.157,70.886 C239.507,69.785 238.321,69.111 237.045,69.111 C235.041,69.111 233.42,70.734 233.42,72.734 L233.42,96.671 C233.42,97.894 234.411,98.881 235.632,98.881 C236.852,98.881 237.842,97.894 237.842,96.671 L237.677,76.265 C237.671,75.807 238.274,75.642 238.508,76.032 L251.047,97.106 C251.698,98.207 252.883,98.881 254.16,98.881 L254.206,98.881 M217.435,87.154 L212.955,74.509 C212.814,74.109 212.25,74.112 212.113,74.511 L207.742,87.154 z M218.881,91.079 L206.341,91.079 L204.027,97.427 C203.71,98.301 202.877,98.881 201.95,98.881 L201.73,98.881 C200.185,98.881 199.115,97.337 199.661,95.891 L208.743,71.811 C209.355,70.187 210.912,69.111 212.65,69.111 C214.387,69.111 215.942,70.187 216.555,71.811 L225.637,95.891 C226.183,97.337 225.114,98.881 223.568,98.881 L223.223,98.881 C222.291,98.881 221.458,98.295 221.142,97.416 z M371.815,82.96 L378.76,82.96 C380.716,82.96 382.173,82.56 383.136,81.763 C384.099,80.966 384.58,79.741 384.58,78.087 C384.58,76.434 384.099,75.207 383.136,74.412 C382.173,73.613 380.716,73.217 378.76,73.217 L373.712,73.217 C372.664,73.217 371.815,74.067 371.815,75.114 z M378.218,86.974 L371.815,86.974 L371.815,96.56 C371.815,97.843 370.775,98.881 369.492,98.881 L369.353,98.881 C368.071,98.881 367.032,97.843 367.032,96.56 L367.032,75.363 C367.032,71.911 369.832,69.111 373.285,69.111 L379.167,69.111 C382.386,69.111 384.926,69.9 386.79,71.478 C388.655,73.056 389.586,75.243 389.586,78.039 C389.586,80.176 389.036,81.957 387.943,83.385 C386.845,84.815 385.289,85.828 383.274,86.429 L389.019,95.293 C390.024,96.837 388.914,98.879 387.073,98.879 C386.278,98.879 385.537,98.474 385.111,97.803 z M175.119,82.96 L182.065,82.96 C184.018,82.96 185.477,82.56 186.44,81.763 C187.403,80.966 187.883,79.741 187.883,78.087 C187.883,76.434 187.403,75.207 186.44,74.412 C185.477,73.613 184.018,73.217 182.065,73.217 L177.016,73.217 C175.969,73.217 175.119,74.067 175.119,75.114 z M181.523,86.974 L175.119,86.974 L175.119,96.56 C175.119,97.843 174.079,98.881 172.796,98.881 L172.659,98.881 C171.375,98.881 170.336,97.843 170.336,96.56 L170.336,75.363 C170.336,71.911 173.135,69.111 176.59,69.111 L182.471,69.111 C185.689,69.111 188.23,69.9 190.095,71.478 C191.959,73.056 192.891,75.243 192.891,78.039 C192.891,80.176 192.34,81.957 191.247,83.385 C190.149,84.815 188.592,85.828 186.576,86.429 L192.324,95.293 C193.326,96.837 192.218,98.879 190.377,98.879 C189.582,98.879 188.842,98.474 188.416,97.803 z M356.106,94.724 L342.55,94.724 C341.505,94.724 340.656,93.872 340.656,92.827 L340.656,85.979 L353.736,85.979 C354.861,85.979 355.772,85.067 355.772,83.945 C355.772,82.818 354.861,81.905 353.736,81.905 L340.656,81.905 L340.656,75.167 C340.656,74.119 341.505,73.269 342.55,73.269 L356.106,73.269 C357.285,73.269 358.243,72.314 358.243,71.135 C358.243,69.956 357.285,68.999 356.106,68.999 L342.55,68.999 C339.15,68.999 336.381,71.765 336.381,75.169 L336.381,92.83 C336.381,96.231 339.15,99 342.55,99 L356.106,99 C357.285,99 358.243,98.044 358.243,96.863 C358.243,95.679 357.285,94.724 356.106,94.724 M289.462,55.725 L275.906,55.725 C274.862,55.725 274.01,54.876 274.01,53.83 L274.01,46.982 L287.093,46.982 C288.217,46.982 289.13,46.07 289.13,44.945 C289.13,43.82 288.217,42.909 287.093,42.909 L274.01,42.909 L274.01,36.17 C274.01,35.123 274.862,34.273 275.906,34.273 L289.462,34.273 C290.642,34.273 291.6,33.316 291.6,32.136 C291.6,30.956 290.642,30 289.462,30 L275.906,30 C272.506,30 269.738,32.766 269.738,36.17 L269.738,53.83 C269.738,57.23 272.506,59.999 275.906,59.999 L289.462,59.999 C290.642,59.999 291.6,59.042 291.6,57.862 C291.6,56.682 290.642,55.725 289.462,55.725 M249.601,42.964 C246.736,42.45 244.743,41.84 243.627,41.132 C242.511,40.423 241.952,39.465 241.952,38.258 C241.952,36.961 242.525,35.898 243.672,35.068 C244.819,34.238 246.432,33.823 248.516,33.823 C250.626,33.823 252.317,34.23 253.585,35.046 C254.266,35.484 254.888,36.067 255.448,36.796 C256.274,37.866 257.832,38.007 258.837,37.103 C259.783,36.249 259.866,34.785 259.015,33.835 C257.987,32.687 256.817,31.778 255.506,31.108 C253.561,30.112 251.215,29.614 248.471,29.614 C246.116,29.614 244.057,30.022 242.294,30.836 C240.529,31.651 239.176,32.752 238.243,34.14 C237.306,35.527 236.839,37.066 236.839,38.756 C236.839,40.355 237.207,41.713 237.949,42.829 C238.686,43.945 239.872,44.881 241.5,45.634 C243.129,46.389 245.316,47.023 248.063,47.535 C250.809,48.049 252.73,48.636 253.832,49.299 C254.934,49.964 255.486,50.838 255.486,51.924 C255.486,53.283 254.874,54.331 253.65,55.069 C252.431,55.81 250.748,56.178 248.607,56.178 C246.343,56.178 244.45,55.757 242.926,54.912 C242.056,54.429 241.277,53.788 240.586,52.992 C239.718,51.983 238.161,51.961 237.222,52.901 L237.213,52.909 C236.353,53.769 236.287,55.16 237.099,56.065 C239.681,58.947 243.532,60.387 248.651,60.387 C251.004,60.387 253.078,60.033 254.874,59.324 C256.669,58.616 258.063,57.597 259.059,56.269 C260.056,54.941 260.553,53.402 260.553,51.653 C260.553,50.024 260.191,48.66 259.467,47.558 C258.742,46.457 257.59,45.537 256.005,44.797 C254.422,44.058 252.286,43.447 249.601,42.964 M182.77,42.974 C179.905,42.458 177.912,41.85 176.796,41.141 C175.68,40.43 175.122,39.474 175.122,38.266 C175.122,36.97 175.696,35.906 176.841,35.075 C177.988,34.247 179.603,33.832 181.685,33.832 C183.795,33.832 185.485,34.238 186.753,35.053 C187.436,35.492 188.057,36.075 188.617,36.806 C189.442,37.875 191.001,38.015 192.007,37.112 C192.953,36.257 193.035,34.794 192.184,33.843 C191.156,32.696 189.985,31.786 188.676,31.116 C186.73,30.12 184.383,29.623 181.639,29.623 C179.286,29.623 177.227,30.03 175.463,30.845 C173.697,31.659 172.346,32.761 171.411,34.148 C170.476,35.536 170.009,37.075 170.009,38.765 C170.009,40.363 170.377,41.722 171.117,42.837 C171.857,43.954 173.042,44.889 174.67,45.643 C176.299,46.397 178.486,47.031 181.232,47.544 C183.977,48.057 185.9,48.645 187.002,49.309 C188.102,49.972 188.654,50.847 188.654,51.933 C188.654,53.291 188.042,54.34 186.821,55.078 C185.599,55.818 183.917,56.187 181.776,56.187 C179.512,56.187 177.619,55.766 176.095,54.92 C175.225,54.438 174.446,53.796 173.757,52.999 C172.889,51.992 171.33,51.969 170.39,52.909 L170.382,52.918 C169.522,53.777 169.457,55.169 170.268,56.074 C172.85,58.956 176.701,60.396 181.821,60.396 C184.173,60.396 186.247,60.041 188.042,59.332 C189.838,58.624 191.232,57.605 192.229,56.278 C193.225,54.951 193.722,53.411 193.722,51.662 C193.722,50.033 193.36,48.669 192.635,47.567 C191.911,46.465 190.759,45.545 189.173,44.806 C187.59,44.066 185.455,43.455 182.77,42.974 M227.343,32.058 L227.343,48.487 C227.343,52.408 226.301,55.372 224.222,57.378 C222.138,59.385 219.107,60.387 215.125,60.387 C211.141,60.387 208.109,59.385 206.028,57.378 C203.947,55.372 202.906,52.408 202.906,48.487 L202.906,32.058 C202.906,30.709 204,29.614 205.349,29.614 C206.697,29.614 207.794,30.709 207.794,32.058 L207.794,47.897 C207.794,50.734 208.388,52.822 209.581,54.166 C210.773,55.507 212.62,56.178 215.125,56.178 C217.63,56.178 219.476,55.507 220.668,54.166 C221.859,52.822 222.455,50.734 222.455,47.897 L222.455,32.058 C222.455,30.709 223.55,29.614 224.9,29.614 C226.248,29.614 227.343,30.709 227.343,32.058" fill="#0C322C"/>
      <path d="M133.999,46.482 L107.813,46.482 C107.652,46.482 107.489,46.482 107.382,46.537 L107.382,45.301 C107.382,42.718 106.737,40.569 105.932,40.569 C105.127,40.569 104.158,42.668 103.728,45.245 L102.383,53.257 C101.953,55.84 103.728,57.938 106.363,57.938 L114.214,57.938 C115.02,57.938 115.774,57.829 116.471,57.614 C116.202,58.959 115.074,59.981 113.624,59.981 L102.601,59.981 C100.825,59.981 99.48,58.366 99.75,56.596 L100.877,49.873 C101.146,48.099 99.802,46.485 98.03,46.485 L43.071,46.485 C41.889,46.485 40.921,47.186 40.437,48.204 L30.113,63.963 C29.952,64.232 29.952,64.554 30.168,64.821 L32.157,67.187 C32.427,67.511 32.856,67.511 33.177,67.294 L40.224,61.757 L40.224,95.417 C40.224,97.032 41.513,98.323 43.125,98.323 L58.719,98.323 C60.333,98.323 61.622,97.032 61.622,95.417 L61.622,83.693 C61.622,82.078 62.913,80.791 64.527,80.791 L103.46,80.791 C105.073,80.791 106.365,82.078 106.365,83.693 L106.365,95.417 C106.365,97.032 107.653,98.323 109.265,98.323 L124.86,98.323 C126.474,98.323 127.763,97.032 127.763,95.417 L127.763,82.833 L119.482,82.833 C116.901,82.833 114.752,80.681 114.752,78.102 L114.752,69.979 C114.752,68.424 115.505,67.078 116.634,66.216 L116.634,75.893 C116.634,78.475 118.785,80.626 121.364,80.626 L134.109,80.626 C136.691,80.626 138.839,78.475 138.839,75.893 L138.839,51.268 C138.732,48.58 136.637,46.482 133.999,46.482 M152.876,53.257 C153.304,55.786 151.534,57.88 148.949,57.88 L141.046,57.88 L140.616,57.88 L140.616,52.128 L141.046,52.128 L143.143,52.128 C145.725,52.128 147.874,49.978 147.874,47.395 L147.874,45.301 C147.874,42.72 148.518,40.568 149.325,40.568 C150.075,40.568 151.101,42.668 151.531,45.245 L152.876,53.257" fill="#30BA78"/>
    </g>
  </g>
</svg>
